public/icons/social-media/Facebook.svg

<svg width="24" height="24" viewBox="0 0 24 24" fill="none" xmlns="http://www.w3.org/2000/svg">
<path d="M12 24C18.6274 24 24 18.6274 24 12C24 5.37258 18.6274 0 12 0C5.37258 0 0 5.37258 0 12C0 18.6274 5.37258 24 12 24Z" fill="#101010"/>
<path d="M12 24C18.6274 24 24 18.6274 24 12C24 5.37258 18.6274 0 12 0C5.37258 0 0 5.37258 0 12C0 18.6274 5.37258 24 12 24Z" fill="#101010"/>
<path d="M15.75 5.62455C15.75 5.5251 15.7105 5.42971 15.6402 5.35939C15.5698 5.28906 15.4745 5.24955 15.375 5.24955H13.5C12.5558 5.20252 11.6314 5.5311 10.9288 6.16349C10.2261 6.79588 9.80234 7.68067 9.75 8.62455V10.6496H7.875C7.77554 10.6496 7.68016 10.6891 7.60984 10.7594C7.53951 10.8297 7.5 10.9251 7.5 11.0246V12.9746C7.5 13.074 7.53951 13.1694 7.60984 13.2397C7.68016 13.31 7.77554 13.3496 7.875 13.3496H9.75V18.3746C9.75 18.474 9.78951 18.5694 9.85983 18.6397C9.93016 18.71 10.0255 18.7496 10.125 18.7496H12.375C12.4745 18.7496 12.5698 18.71 12.6402 18.6397C12.7105 18.5694 12.75 18.474 12.75 18.3746V13.3496H14.715C14.7984 13.3507 14.8798 13.3241 14.9464 13.2739C15.0129 13.2236 15.0608 13.1526 15.0825 13.0721L15.6225 11.1221C15.6374 11.0666 15.6394 11.0085 15.6284 10.9522C15.6173 10.8959 15.5935 10.8429 15.5587 10.7973C15.5239 10.7516 15.4791 10.7146 15.4278 10.689C15.3764 10.6634 15.3199 10.6499 15.2625 10.6496H12.75V8.62455C12.7687 8.43891 12.8558 8.26689 12.9945 8.14207C13.1332 8.01726 13.3134 7.94862 13.5 7.94955H15.375C15.4745 7.94955 15.5698 7.91004 15.6402 7.83972C15.7105 7.76939 15.75 7.67401 15.75 7.57455V5.62455Z" fill="white"/>
</svg>

<svg width="24" height="24" fill="none" xmlns="http://www.w3.org/2000/svg"><path d="M12 24c6.627 0 12-5.373 12-12S18.627 0 12 0 0 5.373 0 12s5.373 12 12 12Z" fill="#101010"/><path d="M12 24c6.627 0 12-5.373 12-12S18.627 0 12 0 0 5.373 0 12s5.373 12 12 12Z" fill="#101010"/><path d="M15.75 5.625a.375.375 0 0 0-.375-.375H13.5a3.577 3.577 0 0 0-3.75 3.375v2.025H7.875a.375.375 0 0 0-.375.375v1.95a.375.375 0 0 0 .375.375H9.75v5.025a.375.375 0 0 0 .375.375h2.25a.375.375 0 0 0 .375-.375V13.35h1.965a.376.376 0 0 0 .367-.278l.54-1.95a.377.377 0 0 0-.36-.472H12.75V8.625a.75.75 0 0 1 .75-.675h1.875a.375.375 0 0 0 .375-.375v-1.95Z" fill="#fff"/></svg>
